uiw/filter.svg

<svg xmlns="http://www.w3.org/2000/svg" viewBox="0 0 20 20" height="1em" width="1em">
  <path fill="#555" d="M8.39758257,14.6045785 L9.72069151,15.7481409 C10.0108962,15.9989646 10.0444149,16.4394138 9.79555776,16.7319118 C9.5467006,17.0244098 9.10970466,17.0581934 8.81950001,16.8073697 L7.25478248,15.4549851 C7.10142726,15.3224403 7.01317389,15.1289858 7.01317389,14.9253707 L7.01317389,7.93828102 L1.17082654,1.15503282 C0.781803161,0.703357844 1.10011445,0 1.69354765,0 L18.3064518,0 C18.9000823,0 19.2183221,0.703763592 18.8288983,1.1553514 L12.9794764,7.93852148 L12.9794764,19.3023256 C12.9794764,19.6876405 12.6695659,20 12.287272,20 C11.9049781,20 11.5950677,19.6876405 11.5950677,19.3023256 L11.5950677,7.67770086 C11.5950677,7.50950502 11.6553535,7.34697097 11.7648255,7.22002387 L16.7876956,1.39534884 L3.21108757,1.39534884 L8.22809934,7.22034245 C8.33740066,7.34724658 8.39758257,7.50965028 8.39758257,7.67770086 L8.39758257,14.6045785 Z"/>
</svg>

<svg xmlns="http://www.w3.org/2000/svg" viewBox="0 0 20 20" height="1em" width="1em">
  <path fill="#555" d="m8.398 14.605 1.323 1.143c.29.251.323.691.075.984a.688.688 0 0 1-.976.075l-1.565-1.352a.7.7 0 0 1-.242-.53V7.938L1.171 1.155C.78.703 1.1 0 1.694 0h16.612c.594 0 .912.704.523 1.155l-5.85 6.784v11.363c0 .386-.31.698-.692.698a.695.695 0 0 1-.692-.698V7.678a.7.7 0 0 1 .17-.458l5.023-5.825H3.21L8.228 7.22a.7.7 0 0 1 .17.458v6.927Z"/>
</svg>
